X:1
T:Praise, 11.10.11.10
T:Karl Pomeroy Harrington, before 1906
T:Praise, 11.10.11.10
T:Public Domain
C:Karl Pomeroy Harrington, before 1906
Z:Public Domain
%%score ( 1 2 ) ( 3 4 )
L:1/8
M:4/4
K:A
V:1 treble 
V:2 treble 
V:3 bass 
V:4 bass 
V:1
 [CA]4 [CG]2 F2 | [DF]4 [DE]4 | [CE]2 [CF]2 [EG]2 [EA]2 | [Ad]4 [Ac]4 | [EB]4 [Ec]2 [Ed]2 | %5
 [Ee]4 [Ac]4 | [Fc]2 [FB]2 [FB]2 F2 | [EA]4 E2 D2 | [CA]4 [CG]2 [CF]2 | [DF]4 [D^E]4 | %10
 [EF]2 [EG]2 [Ec]2 [=Ge]2 | [=Ge]4 [Fd]2 z2 | [Fd]4 [Fc]2 [FB]2 | [EA]2 E2 [FA]2 [EA]2 | %14
 D2 F2 E2 [DG]2 | [CA]8 |] %16
V:2
 x6 F2 | x8 | x8 | x8 | x8 | x8 | x6 F2 | x4 G4 | x8 | x8 | x8 | x8 | x8 | x2 E2 x4 | G6 x2 | x8 |] %16
V:3
 [A,,E,]4 [A,,E,]2 [A,,A,]2 | [B,,G,]4 [B,,G,]4 | [C,A,]2 A,2 [A,C]2 [G,C]2 | [F,D]4 [E,E]4 | %4
 [D,G,]4 [D,A,]2 [D,G,]2 | [C,A,]4 [C,E]4 | [D,E]2 [D,D]2 [B,,D]2 [B,,D]2 | [E,C]4 [E,B,]4 | %8
 A,4 [A,,E,]2 [A,,A,]2 | [B,,G,]4 G,2 B,2 | [F,^A,]2 [F,C]2 [F,A,]2 [A,C]2 | [B,C]4 [B,D]2 z2 | %12
 [B,,D]4 [C,E]2 [D,D]2 | [E,C]2 [E,C]2 [E,D]2 [E,C]2 | B,2 D2 C2 [E,B,]2 | [A,,A,]8 |] %16
V:4
 x8 | x8 | x2 A,2 x4 | x8 | x8 | x8 | x8 | x8 | A,4 x4 | x4 C,4 | x8 | x8 | x8 | x8 | E,6 x2 | %15
 x8 |] %16

